icon-themes/breeze_svg/cmd/sc_solverdialog.svg

<svg viewBox="0 0 16 16" xmlns="http://www.w3.org/2000/svg"><path d="m7.5 2c-3.038 0-5.5 2.462-5.5 5.5 0 1.3301169.4722088 2.549 1.2578125 3.5h1.4453125c-1.0298806-.823828-1.703125-2.075338-1.703125-3.5 0-2.485 2.01-4.5 4.5-4.5 2.485 0 4.5 2.01 4.5 4.5 0 1.4227908-.672475 2.675339-1.703125 3.5h1.445313c.785603-.951 1.257812-2.1698831 1.257812-3.5 0-3.038-2.462-5.5-5.5-5.5zm-.5 2v1h1v-1zm0 2v5h1v-5z" fill="#4d4d4d"/><path d="m6 12c-.5522847 0-1 .447715-1 1s.4477153 1 1 1 1-.447715 1-1-.4477153-1-1-1zm3 0c-.5522847 0-1 .447715-1 1s.4477153 1 1 1 1-.447715 1-1-.4477153-1-1-1zm3 0c-.552285 0-1 .447715-1 1s.447715 1 1 1 1-.447715 1-1-.447715-1-1-1z" fill="#f47750"/></svg>

<svg viewBox="0 0 16 16" xmlns="http://www.w3.org/2000/svg">
  <path
     style="fill:#4d4d4d"
     d="M 7.5 2 C 4.462 2 2 4.462 2 7.5 C 2 8.8301169 2.4722088 10.049 3.2578125 11 L 4.703125 11 C 3.6732444 10.176172 3 8.924662 3 7.5 C 3 5.015 5.01 3 7.5 3 C 9.985 3 12 5.01 12 7.5 C 12 8.9227908 11.327525 10.175339 10.296875 11 L 11.742188 11 C 12.527791 10.049 13 8.8301169 13 7.5 C 13 4.462 10.538 2 7.5 2 z M 7 4 L 7 5 L 8 5 L 8 4 L 7 4 z M 7 6 L 7 11 L 8 11 L 8 6 L 7 6 z "
     />
  <path
     style="fill:#f47750"
     d="m 6,12 c -0.5522847,0 -1,0.447715 -1,1 0,0.552285 0.4477153,1 1,1 0.5522847,0 1,-0.447715 1,-1 0,-0.552285 -0.4477153,-1 -1,-1 z m 3,0 c -0.5522847,0 -1,0.447715 -1,1 0,0.552285 0.4477153,1 1,1 0.5522847,0 1,-0.447715 1,-1 0,-0.552285 -0.4477153,-1 -1,-1 z m 3,0 c -0.552285,0 -1,0.447715 -1,1 0,0.552285 0.447715,1 1,1 0.552285,0 1,-0.447715 1,-1 0,-0.552285 -0.447715,-1 -1,-1 z"
     />
</svg>
